public/assets/img/about-us/apparel.svg

<svg width="114" height="100" viewBox="0 0 114 100" fill="none" xmlns="http://www.w3.org/2000/svg">
<path d="M26.8369 29.0584V28.2087L26.0941 28.6214L12.9481 35.9247C12.9476 35.925 12.947 35.9253 12.9464 35.9256C11.8418 36.5277 10.8347 36.6805 9.89972 36.4467C8.98168 36.2172 8.21802 35.5972 7.62 34.5008L7.62009 34.5008L7.61518 34.4922L1.12416 23.1329C0.525774 22.0339 0.368685 20.9979 0.605769 20.0022C0.838121 19.0263 1.46226 18.2402 2.55035 17.6467L2.55864 17.6422L2.56675 17.6374L31.3446 0.5H38.0252C39.2213 0.5 40.1115 0.845394 40.7561 1.48992C41.4006 2.13444 41.746 3.02467 41.746 4.22078V4.87013C41.746 8.90751 43.266 12.4414 46.2756 15.451C49.2851 18.4605 52.819 19.9805 56.8564 19.9805C60.8938 19.9805 64.4277 18.4605 67.4372 15.451C70.4467 12.4414 71.9668 8.90751 71.9668 4.87013V4.22078C71.9668 3.02467 72.3122 2.13444 72.9567 1.48992C73.6012 0.845394 74.4914 0.5 75.6876 0.5H82.3681L111.146 17.6374L111.154 17.6422L111.162 17.6467C112.251 18.2402 112.875 19.0263 113.107 20.0022C113.344 20.9979 113.187 22.034 112.589 23.133C112.588 23.1344 112.587 23.1358 112.586 23.1372L106.098 34.4922L106.097 34.4921L106.093 34.5008C105.495 35.5972 104.731 36.2172 103.813 36.4467C102.878 36.6805 101.871 36.5277 100.766 35.9256C100.766 35.9253 100.765 35.925 100.765 35.9247L87.6187 28.6214L86.8759 28.2087V29.0584V95.4545C86.8759 96.6296 86.4895 97.5818 85.7236 98.3477C84.9577 99.1136 84.0054 99.5 82.8304 99.5H30.8824C29.7073 99.5 28.7551 99.1136 27.9892 98.3477C27.2232 97.5818 26.8369 96.6296 26.8369 95.4545V29.0584ZM11.3178 32.7435L30.3824 22.2736V95.4545V95.9545H30.8824H82.8304H83.3304V95.4545V22.2736L102.395 32.7435L102.823 32.9786L103.068 32.556L109.562 21.3547L109.809 20.9275L109.385 20.6745L81.6255 4.11604L81.5072 4.04545H81.3694H76.0122H75.5122V4.54545C75.5122 9.83019 73.7206 14.3037 70.1341 17.9958C66.5512 21.6841 62.1363 23.526 56.8564 23.526C51.5765 23.526 47.1616 21.6841 43.5787 17.9958C39.9921 14.3037 38.2005 9.83019 38.2005 4.54545V4.04545H37.7005H32.3434H32.2056L32.0873 4.11604L4.32751 20.6745L3.90342 20.9275L4.15108 21.3547L10.6446 32.556L10.8896 32.9786L11.3178 32.7435Z" fill="#F7941E" stroke="#1F1F1F"/>
</svg>

<svg xmlns="http://www.w3.org/2000/svg" width="114" height="100" fill="none"><path fill="#F7941E" stroke="#1F1F1F" d="M26.837 29.058v-.85l-.743.413-13.146 7.304h-.002c-1.104.603-2.111.756-3.046.522-.918-.23-1.682-.85-2.28-1.946l-.005-.009-6.49-11.36c-.6-1.098-.756-2.134-.52-3.13.233-.976.857-1.762 1.945-2.355l.009-.005.008-.005L31.345.5h6.68c1.196 0 2.087.345 2.731.99.645.644.99 1.535.99 2.73v.65c0 4.038 1.52 7.571 4.53 10.581s6.543 4.53 10.58 4.53c4.038 0 7.572-1.52 10.581-4.53 3.01-3.01 4.53-6.543 4.53-10.58v-.65c0-1.196.345-2.087.99-2.731C73.6.845 74.49.5 75.687.5h6.681l28.778 17.137.008.005.008.005c1.089.593 1.713 1.38 1.945 2.355.237.996.08 2.032-.518 3.131l-.003.004-6.488 11.355h-.001l-.004.009c-.598 1.096-1.362 1.716-2.28 1.946-.935.233-1.942.08-3.047-.521l-.001-.001-13.146-7.304-.743-.412v67.245c0 1.176-.386 2.128-1.152 2.894S84.005 99.5 82.83 99.5H30.882c-1.175 0-2.127-.386-2.893-1.152s-1.152-1.718-1.152-2.894zm-15.52 3.685 19.065-10.47v73.682H83.33V22.274l19.065 10.47.428.235.245-.423 6.494-11.201.247-.428-.424-.253-27.76-16.558-.118-.07h-5.995v.5c0 5.284-1.791 9.758-5.378 13.45-3.583 3.688-7.998 5.53-13.278 5.53s-9.694-1.842-13.277-5.53C39.992 14.304 38.2 9.83 38.2 4.546v-.5h-5.994l-.119.07-27.76 16.558-.424.253.248.428 6.494 11.201.245.423z"/></svg>
